X: 877
T: Alex MacDonnell's Favourite
R: jig
M: 6/8
K: Dmajor
|:e/f/|gdB G2 e|dBA G3|FAd FAd|cBA GBd|
gdB G2 e|dBA G3|FAd cBA|1 G3 G2:|2 G3 GFG||
K: Dmaj
ABA GAG|FAd fed|cAc gfe|dcd fdB|
ABA GAG|FAd fed|cAc gfe|d3 dFG|
ABA GAG|FAd fed|cAc gfe|dcd fdB|
AfA GeG|FAd fed|cAc gfe|d3 d2||

